X:O
T:The Bonny Lass of Fyvie
M:C|
L:1/8
Q:1/2=60
K:D
A|d>cde d3 A|d>cde d3 A|d2 fg  a2gf|e2A2 A3
g|f>efg a2AA|d>edB G2BB|A2 d>d edcB|A2d2 d3|]
